X:1083
T:Hanny of Bargaly's Reel.
M:C|
L:1/8
Q:1/2=112
I: || ||
Z:Jack Campin * www.campin.me.uk * 2009
K:D
B|AFDA BGAG|   BGAF     GEEB   |AFDA  BGAg|fdAc        dDDB|
  AFDA BGAF|   GBFA     BEEF/G/|FAd=c BGed|cA {a}gf/e/ fdd||
f|defg afdf|{b}ag/f/ df geef   |defg  afdA|Bgfe        fddf|
  defg afdf|{b}ag/f/ df geeg   |fdaf  gebg|fdAc        dDD|]
<end>
<start>
